Safari/img/services/07.svg

<svg width="54" height="54" viewBox="0 0 54 54" fill="none" xmlns="http://www.w3.org/2000/svg">
<path d="M30.5801 34.1804C30.5801 39.1476 34.6068 43.1744 39.574 43.1744C44.5409 43.1744 48.5677 39.1476 48.5677 34.1804C48.5677 29.2135 44.5409 25.1868 39.574 25.1868C34.609 25.1922 30.5855 29.2157 30.5801 34.1804ZM39.574 26.9853C43.5478 26.9853 46.7691 30.2066 46.7691 34.1804C46.7691 38.1542 43.5478 41.3754 39.574 41.3754C35.6003 41.3754 32.379 38.1542 32.379 34.1804C32.3834 30.2088 35.6021 26.9897 39.574 26.9853Z" fill="white"/>
<path d="M34.4348 52.1682H44.714V53.9668H34.4348V52.1682Z" fill="white"/>
<path d="M30.5801 48.5704H48.568V50.3694H30.5801V48.5704Z" fill="white"/>
<path d="M10.7935 48.5704H12.5924V50.3694H10.7935V48.5704Z" fill="white"/>
<path d="M5.39746 50.3694H7.19604V52.1683H5.39746V50.3694Z" fill="white"/>
<path d="M10.8834 43.5095C15.5796 35.3305 18.5262 26.265 19.5363 16.8879L27.9008 25.2026C28.0681 25.3692 28.2941 25.4631 28.5303 25.4642C28.5789 25.4646 28.6279 25.4606 28.6758 25.4526C28.961 25.4062 29.2063 25.2255 29.3351 24.9672C31.0306 21.583 30.3666 17.4931 27.6874 14.8194L26.952 14.0835H33.278C33.7747 14.0839 34.1779 13.6815 34.1779 13.1848C34.1782 13.0875 34.1623 12.991 34.1318 12.8992C32.9373 9.30716 29.576 6.88487 25.7905 6.8885H24.6215L29.113 2.37083C29.4635 2.01888 29.4621 1.44959 29.1101 1.09909C29.0419 1.03124 28.9635 0.974642 28.8775 0.931828C25.4919 -0.765518 21.3999 -0.101891 18.7243 2.57874L17.8655 3.43757C17.5854 3.71949 17.3252 4.01992 17.0857 4.33704C16.8492 4.01992 16.5908 3.71949 16.3129 3.43757L15.4541 2.57874C12.7807 -0.100077 8.69082 -0.763703 5.30738 0.931828C4.8629 1.15388 4.68257 1.69415 4.90463 2.13826C4.94744 2.22425 5.00405 2.30262 5.0719 2.37083L9.56852 6.8885H8.38785C4.60239 6.88487 1.24072 9.30716 0.0466235 12.8992C-0.110847 13.3702 0.143501 13.8796 0.614824 14.0371C0.706622 14.0679 0.803136 14.0835 0.900376 14.0835H7.22025L6.48478 14.8194C3.8056 17.4931 3.14161 21.583 4.83678 24.9672C4.96595 25.2255 5.21123 25.4062 5.49605 25.4526C5.54431 25.4606 5.59293 25.4646 5.64191 25.4642C5.87957 25.4642 6.10743 25.3703 6.27579 25.2026L14.0648 17.4597C13.1004 26.0782 9.85443 34.2833 4.66153 41.2287C3.45256 40.9112 2.2269 40.6612 0.990359 40.4806L0.428327 40.424L0.24836 42.2145L0.772658 42.2657C1.67213 42.3945 2.56579 42.5763 3.45474 42.782C3.27477 43.0077 3.09481 43.237 2.90867 43.4594L4.28817 44.6133C11.1998 36.3957 15.3202 26.1939 16.0542 15.4812L17.0894 14.4525L17.8644 15.2232C16.9188 26.6797 12.9864 37.6885 6.45938 47.1513L7.93249 48.1821C8.63966 47.1727 9.31417 46.1252 9.968 45.0577C14.1751 47.07 17.8898 49.9803 20.8505 53.5836L22.2416 52.444C20.491 50.3156 18.4852 48.4103 16.269 46.7718H53.964V44.9728H13.6043C12.7227 44.4405 11.8127 43.9583 10.8834 43.5095ZM28.2001 22.9621L18.6975 13.5142C21.1281 12.7886 23.7608 13.4471 25.5634 15.2319L26.4222 16.0911C28.2215 17.8871 28.9022 20.5188 28.2001 22.9621ZM31.9058 12.285H24.4589C22.7246 11.4595 20.7678 11.2258 18.888 11.6202C20.1967 9.77994 22.3149 8.68708 24.5732 8.68744H25.7873C28.3297 8.68345 30.6732 10.0615 31.9058 12.285ZM19.1343 4.70931L19.9935 3.85048C21.791 2.05081 24.4237 1.36977 26.8682 2.07222L21.5367 7.43529C19.8063 8.07207 18.3208 9.23822 17.2908 10.7676C16.8724 8.56734 17.5625 6.3018 19.1372 4.70931H19.1343ZM14.1798 3.85048L15.0386 4.70931C15.4392 5.11823 15.7868 5.57612 16.0731 6.07176C15.6656 7.01912 15.433 8.0318 15.3859 9.06152C14.5786 8.35617 13.6486 7.80539 12.6428 7.43529L7.31023 2.07222C9.75393 1.37013 12.3859 2.05118 14.1823 3.85048H14.1798ZM8.38495 8.68744H9.59936C11.8591 8.68526 13.9802 9.77776 15.2904 11.6192C13.4117 11.2262 11.4556 11.4599 9.72236 12.285H2.27262C3.50481 10.0626 5.84655 8.6849 8.38785 8.68744H8.38495ZM5.97826 22.9621C5.27617 20.5188 5.95722 17.8871 7.75652 16.0911L8.61535 15.2319C9.90922 13.9413 11.6639 13.2189 13.4919 13.2247C14.1664 13.2251 14.8373 13.3212 15.4849 13.5106L5.97826 22.9621Z" fill="white"/>
</svg>

<svg width="54" height="54" fill="none" xmlns="http://www.w3.org/2000/svg"><path d="M30.58 34.18a8.994 8.994 0 108.994-8.993 9.004 9.004 0 00-8.994 8.993zm8.994-7.195a7.195 7.195 0 11-7.195 7.195 7.203 7.203 0 017.195-7.195zm-5.139 25.183h10.279v1.799h-10.28v-1.799zM30.58 48.57h17.988v1.8H30.58v-1.8zm-19.787 0h1.8v1.8h-1.8v-1.8zm-5.396 1.8h1.799v1.798H5.397V50.37z" fill="#fff"/><path d="M10.883 43.51a68.116 68.116 0 008.653-26.622l8.365 8.315a.898.898 0 001.434-.236 8.78 8.78 0 00-1.648-10.148l-.735-.736h6.326a.899.899 0 00.854-1.184 8.781 8.781 0 00-8.341-6.01h-1.17l4.492-4.518a.9.9 0 00-.235-1.44A8.783 8.783 0 0018.724 2.58l-.858.859c-.28.281-.54.582-.78.899a8.636 8.636 0 00-.773-.9l-.859-.858A8.779 8.779 0 005.307.932a.9.9 0 00-.235 1.439l4.497 4.517H8.388A8.78 8.78 0 00.047 12.9.9.9 0 00.9 14.084h6.32l-.735.735a8.78 8.78 0 00-1.648 10.148.899.899 0 001.439.236l7.789-7.743a48.746 48.746 0 01-9.403 23.769A33.532 33.532 0 00.99 40.48l-.562-.057-.18 1.79.525.052c.9.129 1.793.31 2.682.516-.18.226-.36.455-.546.677l1.38 1.154A50.636 50.636 0 0016.054 15.48l1.035-1.028.775.77A65.76 65.76 0 016.46 47.151l1.473 1.031a60.676 60.676 0 002.036-3.124 31.9 31.9 0 0110.883 8.526l1.39-1.14a33.588 33.588 0 00-5.972-5.672h37.695v-1.8h-40.36a33.113 33.113 0 00-2.72-1.462zM28.2 22.962l-9.502-9.448a6.938 6.938 0 016.865 1.718l.86.86a6.983 6.983 0 011.777 6.87zm3.706-10.677h-7.447a8.77 8.77 0 00-5.571-.665 6.974 6.974 0 015.685-2.933h1.214a6.983 6.983 0 016.119 3.598zM19.134 4.709l.86-.859a6.988 6.988 0 016.874-1.778l-5.331 5.363a8.771 8.771 0 00-4.246 3.333 6.807 6.807 0 011.846-6.059h-.003zM14.18 3.85l.859.86c.4.408.748.866 1.034 1.362a8.555 8.555 0 00-.687 2.99 8.773 8.773 0 00-2.743-1.627L7.31 2.072a6.985 6.985 0 016.872 1.778h-.002zM8.385 8.687h1.214a6.976 6.976 0 015.691 2.932 8.775 8.775 0 00-5.568.666h-7.45a6.984 6.984 0 016.116-3.598h-.003zM5.978 22.962a6.983 6.983 0 011.779-6.87l.858-.86a6.874 6.874 0 014.877-2.007c.674 0 1.345.096 1.993.286l-9.507 9.451z" fill="#fff"/></svg>
